common/src/main/resources/icons/other/backTrace.svg

<svg xmlns="http://www.w3.org/2000/svg" width="16" height="16" data-big="true" viewBox="0 0 24 24"><path fill="#64B5F6" d="M4 21h15a2 2 0 0 0 2-2v-6h-4v2l-4-3 4-3v2h4V5a2 2 0 0 0-2-2H4a2 2 0 0 0-2 2v14a2 2 0 0 0 2 2m0-6h4v2H4zm0-4h7v2H4zm0-4h7v2H4zm17 4h3v2h-3z"/></svg>

<!--
  - The MIT License (MIT)
  -
  - Copyright (c) 2015-2024 Elior "Mallowigi" Boukhobza
  -
  - Permission is hereby granted, free of charge, to any person obtaining a copy
  - of this software and associated documentation files (the "Software"), to deal
  - in the Software without restriction, including without limitation the rights
  - to use, copy, modify, merge, publish, distribute, sublicense, and/or sell
  - copies of the Software, and to permit persons to whom the Software is
  - furnished to do so, subject to the following conditions:
  -
  - The above copyright notice and this permission notice shall be included in all
  - copies or substantial portions of the Software.
  -
  - THE SOFTWARE IS PROVIDED "AS IS", WITHOUT WARRANTY OF ANY KIND, EXPRESS OR
  - IMPLIED, INCLUDING BUT NOT LIMITED TO THE WARRANTIES OF MERCHANTABILITY,
  - FITNESS FOR A PARTICULAR PURPOSE AND NONINFRINGEMENT. IN NO EVENT SHALL THE
  - AUTHORS OR COPYRIGHT HOLDERS BE LIABLE FOR ANY CLAIM, DAMAGES OR OTHER
  - LIABILITY, WHETHER IN AN ACTION OF CONTRACT, TORT OR OTHERWISE, ARISING FROM,
  - OUT OF OR IN CONNECTION WITH THE SOFTWARE OR THE USE OR OTHER DEALINGS IN THE
  - SOFTWARE.
  -->


<svg data-big="true" xmlns="http://www.w3.org/2000/svg" version="1.1" width="16px" height="16px" viewBox="0 0 24 24">
  <path fill="#64B5F6"
        d="M4,21H19A2,2 0 0,0 21,19V13H17V15L13,12L17,9V11H21V5A2,2 0 0,0 19,3H4A2,2 0 0,0 2,5V19A2,2 0 0,0 4,21M4,15H8V17H4V15M4,11H11V13H4V11M4,7H11V9H4V7M21,11H24V13H21V11Z"/>
</svg>
